X:2416
T:Caledonian Laddie Hornpipe. 33
M:4/4
Q:160
C:Browne "C" hand
S:MS12,c1835,Browne Coll.,Lakes
R:Scotch Measure
O:England
A:Lakes
Z:vmp.Chris Partington
K:D
FE|D2DE FEFA|BABde2fe|dcBA Bc/d/ AF|{F}G2E2E2FE|!
D2DE FEFG|BABde2fe|dcBA B/c/d AG|F2D2D2::!
de|f2-f2gfed|cdecA2Bc|d2B2Bcde|f2B2B2{Bc}d2|!
A2AB AFEF|A2d2d2f2|A3{c}B BAGF|B2E2E2F2|!
D3E FEFD|d2def2D2|E3F GFGE|e2efg2ef|!
gfe^d eBce|"NB"cABeA2Bc|d2F2EFGE|F2D2D2|]
W:Bar 22,1st 2 notes unclear,others don't sound right. |]


